docs/img/vax/dynamice.svg

<svg width="1280" height="720" xmlns="http://www.w3.org/2000/svg" xmlns:xlink="http://www.w3.org/1999/xlink" overflow="hidden"><g><rect x="0" y="0" width="1280" height="720" fill="#FFFFFF"/><path d="M296.5 109C296.5 100.992 302.992 94.5001 311 94.5001L419 94.5001C427.008 94.5001 433.5 100.992 433.5 109L433.5 167C433.5 175.008 427.008 181.5 419 181.5L311 181.5C302.992 181.5 296.5 175.008 296.5 167Z" stroke="#042433" stroke-width="3" stroke-miterlimit="8" fill="none" fill-rule="evenodd"/><text font-family="Cambria Math,Cambria Math_MSFontService,sans-serif" font-weight="400" font-size="48" transform="translate(346.943 153)">𝑆</text><path d="M662.5 109C662.5 100.992 668.992 94.5001 677 94.5001L785 94.5001C793.008 94.5001 799.5 100.992 799.5 109L799.5 167C799.5 175.008 793.008 181.5 785 181.5L677 181.5C668.992 181.5 662.5 175.008 662.5 167Z" stroke="#042433" stroke-width="3" stroke-miterlimit="8" fill="none" fill-rule="evenodd"/><text font-family="Cambria Math,Cambria Math_MSFontService,sans-serif" font-weight="400" font-size="48" transform="translate(715.823 153)">𝐼</text><path d="M1028.5 109C1028.5 100.992 1034.99 94.5001 1043 94.5001L1151 94.5001C1159.01 94.5001 1165.5 100.992 1165.5 109L1165.5 167C1165.5 175.008 1159.01 181.5 1151 181.5L1043 181.5C1034.99 181.5 1028.5 175.008 1028.5 167Z" stroke="#042433" stroke-width="3" stroke-miterlimit="8" fill="none" fill-rule="evenodd"/><text font-family="Cambria Math,Cambria Math_MSFontService,sans-serif" font-weight="400" font-size="48" transform="translate(1075.22 153)">𝑅</text><path d="M296.5 438C296.5 429.992 302.992 423.5 311 423.5L419 423.5C427.008 423.5 433.5 429.992 433.5 438L433.5 496C433.5 504.008 427.008 510.5 419 510.5L311 510.5C302.992 510.5 296.5 504.008 296.5 496Z" stroke="#042433" stroke-width="3" stroke-miterlimit="8" fill="none" fill-rule="evenodd"/><text font-family="Cambria Math,Cambria Math_MSFontService,sans-serif" font-weight="400" font-size="48" transform="translate(337.11 483)">𝑆</text><text font-family="Cambria Math,Cambria Math_MSFontService,sans-serif" font-weight="400" font-size="35" transform="translate(360.336 492)">𝑣</text><path d="M662.5 438C662.5 429.992 668.992 423.5 677 423.5L785 423.5C793.008 423.5 799.5 429.992 799.5 438L799.5 496C799.5 504.008 793.008 510.5 785 510.5L677 510.5C668.992 510.5 662.5 504.008 662.5 496Z" stroke="#042433" stroke-width="3" stroke-miterlimit="8" fill="none" fill-rule="evenodd"/><text font-family="Cambria Math,Cambria Math_MSFontService,sans-serif" font-weight="400" font-size="48" transform="translate(706.636 483)">𝐼</text><text font-family="Cambria Math,Cambria Math_MSFontService,sans-serif" font-weight="400" font-size="35" transform="translate(721.989 492)">𝑣</text><path d="M1028.5 438C1028.5 429.992 1034.99 423.5 1043 423.5L1151 423.5C1159.01 423.5 1165.5 429.992 1165.5 438L1165.5 496C1165.5 504.008 1159.01 510.5 1151 510.5L1043 510.5C1034.99 510.5 1028.5 504.008 1028.5 496Z" stroke="#042433" stroke-width="3" stroke-miterlimit="8" fill="none" fill-rule="evenodd"/><text font-family="Cambria Math,Cambria Math_MSFontService,sans-serif" font-weight="400" font-size="48" transform="translate(1064.98 483)">𝑅</text><text font-family="Cambria Math,Cambria Math_MSFontService,sans-serif" font-weight="400" font-size="35" transform="translate(1094.83 492)">𝑣</text><path d="M433 135 651.589 135 651.589 139 433 139ZM649.59 131 661.59 137 649.59 143Z"/><path d="M799 135 1017.59 135 1017.59 139 799 139ZM1015.59 131 1027.59 137 1015.59 143Z"/><path d="M433 464 651.59 464.028 651.589 468.028 433 468ZM649.59 460.028 661.59 466.029 649.589 472.028Z"/><path d="M799 464 1017.59 464 1017.59 468 799 468ZM1015.59 460 1027.59 466 1015.59 472Z"/><path d="M2-8.67615e-07 2.0001 232.013-1.9999 232.013-2 8.67615e-07ZM6.0001 230.013 0.000104987 242.013-5.9999 230.013Z" transform="matrix(-1 0 0 1 365 181)"/><text font-family="Cambria Math,Cambria Math_MSFontService,sans-serif" font-weight="400" font-size="48" transform="translate(900.08 443)">𝛾</text><text font-family="Cambria Math,Cambria Math_MSFontService,sans-serif" font-weight="400" font-size="48" transform="translate(900.08 113)">𝛾</text><text font-family="Cambria Math,Cambria Math_MSFontService,sans-serif" font-weight="400" font-size="48" transform="translate(504.908 113)">𝜆</text><path d="M572.178 76.9689C576.741 78.172 580.245 80.7697 582.69 84.7618 585.135 88.754 586.358 93.5704 586.358 99.2111 586.358 104.867 585.139 109.684 582.702 113.66 580.264 117.637 576.756 120.227 572.178 121.43L571.616 119.625C575.225 118.422 577.909 116.047 579.667 112.5 581.424 108.953 582.303 104.445 582.303 98.9767 582.303 93.6954 581.428 89.3087 579.678 85.8165 577.928 82.3243 575.217 79.9767 571.545 78.7736ZM548.96 76.9689 549.593 78.7736C545.936 79.9767 543.229 82.3243 541.472 85.8165 539.714 89.3087 538.835 93.6954 538.835 98.9767 538.835 104.445 539.714 108.953 541.472 112.5 543.229 116.047 545.913 118.422 549.522 119.625L548.96 121.43C544.382 120.227 540.874 117.637 538.436 113.66 535.999 109.684 534.78 104.867 534.78 99.2111 534.78 93.5704 536.003 88.754 538.448 84.7618 540.893 80.7697 544.397 78.172 548.96 76.9689Z" fill-rule="evenodd"/><text font-family="Cambria Math,Cambria Math_MSFontService,sans-serif" font-weight="400" font-size="48" transform="translate(550.481 113)">𝑡</text><text font-family="Cambria Math,Cambria Math_MSFontService,sans-serif" font-weight="400" font-size="48" transform="matrix(0.935935 0.352174 -0.352174 0.935935 770.746 272)">𝜌</text><text font-family="Cambria Math,Cambria Math_MSFontService,sans-serif" font-weight="400" font-size="35" transform="matrix(0.935935 0.352174 -0.352174 0.935935 790.25 290)">1</text><text font-family="Cambria Math,Cambria Math_MSFontService,sans-serif" font-weight="400" font-size="48" transform="matrix(0.935935 0.352174 -0.352174 0.935935 814.597 289)">𝑉𝐸</text><text font-family="Cambria Math,Cambria Math_MSFontService,sans-serif" font-weight="400" font-size="35" transform="matrix(0.935935 0.352174 -0.352174 0.935935 864.887 318)">𝑃1</text><text font-family="Cambria Math,Cambria Math_MSFontService,sans-serif" font-weight="400" font-size="48" transform="translate(504.908 442)">𝜆</text><path d="M572.178 406.04C576.741 407.243 580.245 409.841 582.69 413.833 585.135 417.825 586.358 422.641 586.358 428.282 586.358 433.938 585.139 438.755 582.702 442.731 580.264 446.708 576.756 449.298 572.178 450.501L571.616 448.696C575.225 447.493 577.909 445.118 579.666 441.571 581.424 438.024 582.303 433.516 582.303 428.048 582.303 422.766 581.428 418.38 579.678 414.887 577.928 411.395 575.217 409.048 571.545 407.844ZM548.96 406.04 549.593 407.844C545.936 409.048 543.229 411.395 541.472 414.887 539.714 418.38 538.835 422.766 538.835 428.048 538.835 433.516 539.714 438.024 541.472 441.571 543.229 445.118 545.913 447.493 549.522 448.696L548.96 450.501C544.382 449.298 540.874 446.708 538.436 442.731 535.999 438.755 534.78 433.938 534.78 428.282 534.78 422.641 536.003 417.825 538.448 413.833 540.893 409.841 544.397 407.243 548.96 406.04Z" fill-rule="evenodd"/><text font-family="Cambria Math,Cambria Math_MSFontService,sans-serif" font-weight="400" font-size="48" transform="translate(550.481 442)">𝑡</text><text font-family="Cambria Math,Cambria Math_MSFontService,sans-serif" font-weight="400" font-size="48" transform="translate(77.657 312)">𝜌</text><text font-family="Cambria Math,Cambria Math_MSFontService,sans-serif" font-weight="400" font-size="35" transform="translate(102.184 322)">1</text><text font-family="Cambria Math,Cambria Math_MSFontService,sans-serif" font-weight="400" font-size="48" transform="translate(124.51 312)">(</text><text font-family="Cambria Math,Cambria Math_MSFontService,sans-serif" font-weight="400" font-size="48" transform="translate(144.51 312)">1</text><text font-family="Cambria Math,Cambria Math_MSFontService,sans-serif" font-weight="400" font-size="48" transform="translate(181.677 312)">−</text><text font-family="Cambria Math,Cambria Math_MSFontService,sans-serif" font-weight="400" font-size="48" transform="translate(228.177 312)">𝑉𝐸</text><text font-family="Cambria Math,Cambria Math_MSFontService,sans-serif" font-weight="400" font-size="35" transform="translate(285.597 322)">𝑃1</text><text font-family="Cambria Math,Cambria Math_MSFontService,sans-serif" font-weight="400" font-size="48" transform="translate(330.59 312)">)</text><path d="M432.713 168.131 1087.24 417.827 1085.82 421.564 431.287 171.869ZM1086.8 413.378 1095.87 423.261 1082.52 424.589Z"/><path d="M0-2 99.2925-2 99.2925 733.179 10.0293 733.179 10.0293 729.179 97.2925 729.179 95.2925 731.179 95.2925 0 97.2925 2 0 2ZM12.0294 737.179 0.0293963 731.179 12.0294 725.179Z" transform="matrix(1.83697e-16 1 1 -1.83697e-16 365 510)"/><text font-family="Cambria Math,Cambria Math_MSFontService,sans-serif" font-weight="400" font-size="48" transform="translate(655.445 584)">𝜌</text><text font-family="Cambria Math,Cambria Math_MSFontService,sans-serif" font-weight="400" font-size="35" transform="translate(681.085 593)">2</text><text font-family="Cambria Math,Cambria Math_MSFontService,sans-serif" font-weight="400" font-size="48" transform="translate(703.411 584)">𝑉𝐸</text><text font-family="Cambria Math,Cambria Math_MSFontService,sans-serif" font-weight="400" font-size="35" transform="translate(760.831 593)">𝑃2</text><path d="M2-8.6751e-07 2.0001 232.042-1.9999 232.042-2 8.6751e-07ZM6.0001 230.042 0.000104987 242.042-5.9999 230.042Z" transform="matrix(-1 0 0 1 731 181)"/><path d="M1098 181 1098 413.042 1094 413.042 1094 181ZM1102 411.042 1096 423.042 1090 411.042Z"/><text font-family="Cambria Math,Cambria Math_MSFontService,sans-serif" font-weight="400" font-size="48" transform="translate(674.52 312)">𝜌</text><text font-family="Cambria Math,Cambria Math_MSFontService,sans-serif" font-weight="400" font-size="35" transform="translate(699.046 322)">1</text><text font-family="Cambria Math,Cambria Math_MSFontService,sans-serif" font-weight="400" font-size="48" transform="translate(1040.11 312)">𝜌</text><text font-family="Cambria Math,Cambria Math_MSFontService,sans-serif" font-weight="400" font-size="35" transform="translate(1064.64 322)">1</text></g></svg>

<svg xmlns="http://www.w3.org/2000/svg" width="1280" height="720" overflow="hidden"><path fill="#fff" d="M0 0h1280v720H0z"/><path fill="none" stroke="#042433" stroke-miterlimit="8" stroke-width="3" d="M296.5 109c0-8.008 6.492-14.5 14.5-14.5h108c8.008 0 14.5 6.492 14.5 14.5v58c0 8.008-6.492 14.5-14.5 14.5H311c-8.008 0-14.5-6.492-14.5-14.5Z"/><text font-family="Cambria Math,Cambria Math_MSFontService,sans-serif" font-size="48" font-weight="400" transform="translate(346.943 153)">𝑆</text><path fill="none" stroke="#042433" stroke-miterlimit="8" stroke-width="3" d="M662.5 109c0-8.008 6.492-14.5 14.5-14.5h108c8.008 0 14.5 6.492 14.5 14.5v58c0 8.008-6.492 14.5-14.5 14.5H677c-8.008 0-14.5-6.492-14.5-14.5Z"/><text font-family="Cambria Math,Cambria Math_MSFontService,sans-serif" font-size="48" font-weight="400" transform="translate(715.823 153)">𝐼</text><path fill="none" stroke="#042433" stroke-miterlimit="8" stroke-width="3" d="M1028.5 109c0-8.008 6.49-14.5 14.5-14.5h108c8.01 0 14.5 6.492 14.5 14.5v58c0 8.008-6.49 14.5-14.5 14.5h-108c-8.01 0-14.5-6.492-14.5-14.5Z"/><text font-family="Cambria Math,Cambria Math_MSFontService,sans-serif" font-size="48" font-weight="400" transform="translate(1075.22 153)">𝑅</text><path fill="none" stroke="#042433" stroke-miterlimit="8" stroke-width="3" d="M296.5 438c0-8.008 6.492-14.5 14.5-14.5h108c8.008 0 14.5 6.492 14.5 14.5v58c0 8.008-6.492 14.5-14.5 14.5H311c-8.008 0-14.5-6.492-14.5-14.5Z"/><text font-family="Cambria Math,Cambria Math_MSFontService,sans-serif" font-size="48" font-weight="400" transform="translate(337.11 483)">𝑆</text><text font-family="Cambria Math,Cambria Math_MSFontService,sans-serif" font-size="35" font-weight="400" transform="translate(360.336 492)">𝑣</text><path fill="none" stroke="#042433" stroke-miterlimit="8" stroke-width="3" d="M662.5 438c0-8.008 6.492-14.5 14.5-14.5h108c8.008 0 14.5 6.492 14.5 14.5v58c0 8.008-6.492 14.5-14.5 14.5H677c-8.008 0-14.5-6.492-14.5-14.5Z"/><text font-family="Cambria Math,Cambria Math_MSFontService,sans-serif" font-size="48" font-weight="400" transform="translate(706.636 483)">𝐼</text><text font-family="Cambria Math,Cambria Math_MSFontService,sans-serif" font-size="35" font-weight="400" transform="translate(721.989 492)">𝑣</text><path fill="none" stroke="#042433" stroke-miterlimit="8" stroke-width="3" d="M1028.5 438c0-8.008 6.49-14.5 14.5-14.5h108c8.01 0 14.5 6.492 14.5 14.5v58c0 8.008-6.49 14.5-14.5 14.5h-108c-8.01 0-14.5-6.492-14.5-14.5Z"/><text font-family="Cambria Math,Cambria Math_MSFontService,sans-serif" font-size="48" font-weight="400" transform="translate(1064.98 483)">𝑅</text><text font-family="Cambria Math,Cambria Math_MSFontService,sans-serif" font-size="35" font-weight="400" transform="translate(1094.83 492)">𝑣</text><path d="M433 135h218.589v4H433Zm216.59-4 12 6-12 6ZM799 135h218.59v4H799Zm216.59-4 12 6-12 6ZM433 464l218.59.028-.001 4L433 468Zm216.59-3.972 12 6.001-12.001 5.999ZM799 464h218.59v4H799Zm216.59-4 12 6-12 6ZM363 181v232.013h4V181Zm-4 230.013 6 12 6-12Z"/><text font-family="Cambria Math,Cambria Math_MSFontService,sans-serif" font-size="48" font-weight="400" transform="translate(900.08 443)">𝛾</text><text font-family="Cambria Math,Cambria Math_MSFontService,sans-serif" font-size="48" font-weight="400" transform="translate(900.08 113)">𝛾</text><text font-family="Cambria Math,Cambria Math_MSFontService,sans-serif" font-size="48" font-weight="400" transform="translate(504.908 113)">𝜆</text><path fill-rule="evenodd" d="M572.178 76.969q6.845 1.804 10.512 7.793 3.668 5.987 3.668 14.45 0 8.483-3.656 14.448-3.657 5.966-10.524 7.77l-.562-1.805q5.414-1.805 8.051-7.125 2.636-5.32 2.636-13.523 0-7.923-2.625-13.16-2.625-5.239-8.133-7.043Zm-23.218 0 .633 1.805q-5.486 1.804-8.121 7.043-2.637 5.238-2.637 13.16 0 8.202 2.637 13.523t8.05 7.125l-.562 1.805q-6.867-1.805-10.524-7.77t-3.656-14.449q0-8.46 3.668-14.45 3.668-5.987 10.512-7.792"/><text font-family="Cambria Math,Cambria Math_MSFontService,sans-serif" font-size="48" font-weight="400" transform="translate(550.481 113)">𝑡</text><text font-family="Cambria Math,Cambria Math_MSFontService,sans-serif" font-size="48" font-weight="400" transform="rotate(20.62 -362.232 2254.434)">𝜌</text><text font-family="Cambria Math,Cambria Math_MSFontService,sans-serif" font-size="35" font-weight="400" transform="rotate(20.62 -401.954 2317.041)">1</text><text font-family="Cambria Math,Cambria Math_MSFontService,sans-serif" font-size="48" font-weight="400" transform="rotate(20.62 -387.032 2383.46)">𝑉𝐸</text><text font-family="Cambria Math,Cambria Math_MSFontService,sans-serif" font-size="35" font-weight="400" transform="rotate(20.62 -441.595 2536.185)">𝑃1</text><text font-family="Cambria Math,Cambria Math_MSFontService,sans-serif" font-size="48" font-weight="400" transform="translate(504.908 442)">𝜆</text><path fill-rule="evenodd" d="M572.178 406.04q6.845 1.805 10.512 7.793t3.668 14.449q0 8.484-3.656 14.449t-10.524 7.77l-.562-1.805q5.414-1.804 8.05-7.125t2.637-13.523q0-7.922-2.625-13.161t-8.133-7.043Zm-23.218 0 .633 1.804q-5.486 1.805-8.121 7.043-2.637 5.239-2.637 13.161 0 8.202 2.637 13.523t8.05 7.125l-.562 1.805q-6.867-1.805-10.524-7.77t-3.656-14.449q0-8.461 3.668-14.449t10.512-7.793"/><text font-family="Cambria Math,Cambria Math_MSFontService,sans-serif" font-size="48" font-weight="400" transform="translate(550.481 442)">𝑡</text><text font-family="Cambria Math,Cambria Math_MSFontService,sans-serif" font-size="48" font-weight="400" transform="translate(77.657 312)">𝜌</text><text font-family="Cambria Math,Cambria Math_MSFontService,sans-serif" font-size="35" font-weight="400" transform="translate(102.184 322)">1</text><text font-family="Cambria Math,Cambria Math_MSFontService,sans-serif" font-size="48" font-weight="400" transform="translate(124.51 312)">(</text><text font-family="Cambria Math,Cambria Math_MSFontService,sans-serif" font-size="48" font-weight="400" transform="translate(144.51 312)">1</text><text font-family="Cambria Math,Cambria Math_MSFontService,sans-serif" font-size="48" font-weight="400" transform="translate(181.677 312)">−</text><text font-family="Cambria Math,Cambria Math_MSFontService,sans-serif" font-size="48" font-weight="400" transform="translate(228.177 312)">𝑉𝐸</text><text font-family="Cambria Math,Cambria Math_MSFontService,sans-serif" font-size="35" font-weight="400" transform="translate(285.597 322)">𝑃1</text><text font-family="Cambria Math,Cambria Math_MSFontService,sans-serif" font-size="48" font-weight="400" transform="translate(330.59 312)">)</text><path d="m432.713 168.131 654.527 249.696-1.42 3.737-654.533-249.695ZM1086.8 413.378l9.07 9.883-13.35 1.328ZM363 510v99.293h735.179v-89.264h-4v87.263l2-2H365l2 2V510Zm739.179 12.03-6-12-6 12Z"/><text font-family="Cambria Math,Cambria Math_MSFontService,sans-serif" font-size="48" font-weight="400" transform="translate(655.445 584)">𝜌</text><text font-family="Cambria Math,Cambria Math_MSFontService,sans-serif" font-size="35" font-weight="400" transform="translate(681.085 593)">2</text><text font-family="Cambria Math,Cambria Math_MSFontService,sans-serif" font-size="48" font-weight="400" transform="translate(703.411 584)">𝑉𝐸</text><text font-family="Cambria Math,Cambria Math_MSFontService,sans-serif" font-size="35" font-weight="400" transform="translate(760.831 593)">𝑃2</text><path d="M729 181v232.042h4V181Zm-4 230.042 6 12 6-12ZM1098 181v232.042h-4V181Zm4 230.042-6 12-6-12Z"/><text font-family="Cambria Math,Cambria Math_MSFontService,sans-serif" font-size="48" font-weight="400" transform="translate(674.52 312)">𝜌</text><text font-family="Cambria Math,Cambria Math_MSFontService,sans-serif" font-size="35" font-weight="400" transform="translate(699.046 322)">1</text><text font-family="Cambria Math,Cambria Math_MSFontService,sans-serif" font-size="48" font-weight="400" transform="translate(1040.11 312)">𝜌</text><text font-family="Cambria Math,Cambria Math_MSFontService,sans-serif" font-size="35" font-weight="400" transform="translate(1064.64 322)">1</text></svg>
